X: 1120
T: Amy's 30th
R: reel
M: 4/4
K: Dmajor
Afff efde|f2 bf afed|e2 eg fedc|dcBA BAGE|
Afff efdg|f2 de fgaf|eA A/A/A GA A/A/A|1 cdef d3 B:|2 gfed B3A||
|:BdcA ~B3A|BdcA ~G3F|EGFD egfd|gfed BAdc|
BAFA B2 Bc|dcBA G2 FA|B2 fd efdc|1 BdcA B3A:|2 BFdc B4||

